X: 10762
T: Mrs Mc DOWALL GRANT'S STRATHSPEY
Q: "Slow and Distinct."
%R: strathspey
B: "Edinburgh Repository of Music" v.1 p.76 #2
F: http://digital.nls.uk/special-collections-of-printed-music/pageturner.cfm?id=87776133
Z: 2015 John Chambers <jc:trillian.mit.edu>
M: 2/4
L: 1/8
K: F
B |\
(A/B/c) (.c.c) | B<d Td2 | (A/B/c) AF | E>G G>B |\
AB/c/ (.c.c) | (B/c/d/e/) fd | cABG | {E}F2 F :|
f |\
Tg2 {fg}ae | fcf>a | ({a}gf/g/) af | egga |\
Tg2 {fg}ae | fc {g}fe/d/ | cABG | {E}F2 F ||
f |\
Tg2 {fg}ae | fcfa | {a}Tg2 {fg}af | eg Tgf/g/ |\
afdf | ecfd | {d}cB/A/ {c}BA/G/ | {E}F2 F |]
